X:125
T:Hielanman's Kneebuckle (reel), The 
B:CRE2.156 (BÃÂÃÂÃÂÃÂºcla GlÃÂÃÂÃÂÃÂºine an HÃÂÃÂÃÂÃÂ­leantÃÂÃÂÃÂÃÂ³ra)
F:file ID: cre.2/125hiel_k
N:1:A cousin of "Tom Steele / Hand Me Down the Tackle".
N:2:Not related to "Highlander's Kneebuckle" (CRE.2 #136)
L:1/8
M:C
R:reel % A-B-C-A
Q:180
K:D
Bc|:d2D2 (3FED FA|d2fd edBc|dDD2 FDFA|GFEF GABc|
"5"dDD2 FDFA|d2fd edBc|d2dc dcBA|GFEF GABc:|
"9"d2fd Adfd|d2fd AGFA|d2fd Adfd|GFEF GABc|
"13"d2fd adfd|d2fa g2fg|agfd fdAF|GFEF GABc||
"17"d2fd Adfd|d2fd AGFA|d2fd Adfe|GFEF GAfg|
"21"a2ag abaf|g2gf gbag|faeg fdAF|GFEF A2Bc||

%%%

